svg/300/rounded/format_size-fill.svg

<svg xmlns="http://www.w3.org/2000/svg" width="48" height="48" viewBox="0 -960 960 960"><path d="M583.847-709.616h-170.77q-14.583 0-24.791-10.262t-10.208-24.923q0-14.66 10.208-24.929 10.208-10.269 24.791-10.269H825q14.583 0 24.791 10.263 10.208 10.262 10.208 24.922t-10.208 24.929Q839.583-709.616 825-709.616H654.23V-215q0 14.583-10.262 24.791-10.263 10.208-24.923 10.208-14.66 0-24.929-10.321-10.269-10.32-10.269-25.063v-494.231ZM226.54-511.539H135q-14.583 0-24.791-10.262-10.208-10.263-10.208-24.923 0-14.66 10.208-24.929 10.208-10.269 24.791-10.269h253.077q14.583 0 24.791 10.262t10.208 24.923q0 14.66-10.208 24.929-10.208 10.269-24.791 10.269h-91.54V-215q0 14.583-10.262 24.791t-24.922 10.208q-14.66 0-24.737-10.208Q226.54-200.417 226.54-215v-296.539Z"/></svg>

<svg xmlns="http://www.w3.org/2000/svg" width="48" height="48" viewBox="0 -960 960 960"><path d="M583.85-709.62H413.08q-14.59 0-24.79-10.26-10.21-10.26-10.21-24.92 0-14.66 10.21-24.93Q398.49-780 413.08-780H825q14.58 0 24.79 10.26Q860-759.47 860-744.81t-10.21 24.92q-10.21 10.27-24.79 10.27H654.23V-215q0 14.58-10.26 24.79Q633.71-180 619.05-180q-14.66 0-24.93-10.32t-10.27-25.07v-494.23ZM226.54-511.54H135q-14.58 0-24.79-10.26Q100-532.06 100-546.72q0-14.66 10.21-24.93T135-581.92h253.08q14.58 0 24.79 10.26 10.21 10.26 10.21 24.92 0 14.66-10.21 24.93t-24.79 10.27h-91.54V-215q0 14.58-10.26 24.79Q276.01-180 261.35-180t-24.73-10.21q-10.08-10.21-10.08-24.79v-296.54Z"/></svg>
